X:361
%%etbk:tnset id:174,pos:3,rep:3x,ant:
%%etbk:wsite http://www.trad.katesplacedoolin.com/tunes/millersmaggot.html
%%etbk:pldat 2015-07-17T16:35,2015-01-19T19:37,2014-12-27T15:05,2014-12-14T15:58,2014-12-08T18:27,2014-12-07T09:55,2014-12-06T16:47,2014-11-19T16:15,2014-05-08T19:14,2014-03-21T16:44,2014-02-16T16:19,2014-02-12T18:48,2013-11-16T14:56,2013-10-23T18:32,2013-10-21T17:47,2013-10-20T14:11,2013-10-02T16:28,2013-09-15T16:43,2013-08-29T15:55,2013-08-27T18:03,2013-08-26T18:09,2013-05-23T18:49,2013-05-21T17:50,2013-05-18T13:30,2013-05-14T18:07,2013-05-12T18:18,2013-05-07T19:04
T:Miller's Maggot, The
Z: Piano Box Version by Martin Fleischmann
H: Created 2013-02-19 /  Last Modified 2014-11-19
R:Jig
M:6/8
L:1/8
K: Gmaj
|:  "G"!1!G2A !3!B2A | !3!B2A !3!B!1!G!2!E | !1!G2A !3!B2!1!A | "D"!2!B!5!ee dB!1!A|
"G"!1!G2A !3!B2A | !3!B2A !3!B!1!GG | "D"!4!gfe !1!d!2!B!1!A |1 !2!B!5!ee !4!d!2!B!1!A:|2 !2!B!5!ee !4!d!2!B!4!d||
|: "C"!3!e2f !4!fge | "G"!2!d2!1!B !3!B!2!A!1!G | "C"!3!e2f !2!f!3!g!3!g | "D"!4!a2a !5!bg!1!e |
"C"!3!e2f !4!fge | "G"!2!d2!1!B !3!B!2!A!1!G  | "D"!1!A2B !3!cBA |1 !2!B!5!e!5!e !4!d!2!B!4!d:|2 !2!B!5!ee !4!d!2!B!1!A||


